X:1
T:Title
%%score { 1 | ( 2 3 ) }
L:1/8
M:4/4
K:Ab
V:1 treble nm="Grand Piano"
V:2 bass 
V:3 bass 
V:1
 z4 z2[Q:1/4=100] [CE]>[CE] | [CA]2 [CA]2 [CA]2 [CE]>[CE] | [CA]6 [CA]>[DB] | %3
 [Ec]2 [Ec]2 [Ec]2 [CA]2 |[M:3/4] [Ec]6 |[M:1/4] [Ec]>[Fd] |[M:4/4] e2 e2 e2 c>c | %7
 [Ee]2 [Ee]4 [Fd]>[Fd] | c2 A2 B2 B2 |[M:3/4] [CA]6 |[M:1/4] G>A |[M:4/4] B2 B2 B2 G>G | B6 B>c | %13
 d2 d2 d2 B2 |[M:3/4] d6 |[M:1/4] [Ec]>[Fd] |[M:4/4] e2 e2 e2 c>c | [Ee]2 [Ee]4 [Fd]>[Fd] | %18
 c2 A2 B2 B2 |[M:7/4] [CA]6 z2 z2 z4 |] %20
V:2
 z4 z2 [A,,A,]>[A,,A,] | [A,,E,]2 [A,,E,]2 [A,,E,]2 [A,,A,]>[A,,A,] | [A,,E,]6 [A,,E,]>[A,,E,] | %3
 [A,,A,]2 [A,,A,]2 [A,,A,]2 [A,,E,]2 |[M:3/4] [A,,A,]6 |[M:1/4] [A,,A,]>[A,,A,] | %6
[M:4/4][K:treble] [A,CE]2 [A,CE]2 [A,CE]2 E>E | [C,A,]2 [C,A,]4 [D,A,]>[D,A,] | %8
 [E,A,E]2 [E,A,C]2 [E,G,D]2 [E,G,D]2 |[M:3/4] [A,,A,]6 |[M:1/4] [E,B,E]>[E,F,E] | %11
[M:4/4] [E,G,E]2 [E,G,E]2 [E,G,E]2 [E,B,E]>[E,B,E] | [E,G,E]6 [E,G,E]>[E,A,E] | %13
 [E,B,E]2 [E,B,E]2 [E,B,E]2 [E,G,E]2 |[M:3/4] [E,B,E]6 |[M:1/4] [A,,A,]>[A,,A,] | %16
[M:4/4][K:treble] [A,CE]2 [A,CE]2 [A,CE]2 E>E | [C,A,]2 [C,A,]4 [D,A,]>[D,A,] | %18
 [E,A,E]2 [E,A,C]2 [E,G,D]2 [E,G,D]2 |[M:7/4] [A,,A,]6 z2 z2 z4 |] %20
V:3
 x8 | x8 | x8 | x8 |[M:3/4] x6 |[M:1/4] x2 |[M:4/4][K:treble] z4 z2 A,2 | x8 | x8 |[M:3/4] x6 | %10
[M:1/4] x2 |[M:4/4] x8 | x8 | x8 |[M:3/4] x6 |[M:1/4] x2 |[M:4/4][K:treble] z4 z2 A,2 | x8 | x8 | %19
[M:7/4] x14 |] %20

